src/assets/filled/BuyCrypto.svg

<svg width="24" height="24" viewBox="0 0 24 24"  xmlns="http://www.w3.org/2000/svg">
<path d="M22.0001 8.5C22.0001 11.76 19.6001 14.45 16.4801 14.92V14.86C16.1701 10.98 13.0201 7.83 9.11008 7.52H9.08008C9.55008 4.4 12.2401 2 15.5001 2C19.0901 2 22.0001 4.91 22.0001 8.5Z" />
<path d="M14.98 14.98C14.73 11.81 12.19 9.27 9.02 9.02C8.85 9.01 8.67 9 8.5 9C4.91 9 2 11.91 2 15.5C2 19.09 4.91 22 8.5 22C12.09 22 15 19.09 15 15.5C15 15.33 14.99 15.15 14.98 14.98ZM9.38 16.38L8.5 18L7.62 16.38L6 15.5L7.62 14.62L8.5 13L9.38 14.62L11 15.5L9.38 16.38Z" />
</svg>

<?xml version="1.0" encoding="UTF-8"?>
<svg width="24" height="24" viewBox="0 0 24 24" xmlns="http://www.w3.org/2000/svg">
 <path d="m22 8.5c0 3.26-2.4 5.95-5.52 6.42v-0.06c-0.31-3.88-3.46-7.03-7.37-7.34h-0.03c0.47-3.12 3.16-5.52 6.42-5.52 3.59 0 6.5 2.91 6.5 6.5z"/>
 <path d="m14.98 14.98c-0.25-3.17-2.79-5.71-5.96-5.96-0.17-0.01-0.35-0.02-0.52-0.02-3.59 0-6.5 2.91-6.5 6.5s2.91 6.5 6.5 6.5 6.5-2.91 6.5-6.5c0-0.17-0.01-0.35-0.02-0.52zm-5.6 1.4-0.88 1.62-0.88-1.62-1.62-0.88 1.62-0.88 0.88-1.62 0.88 1.62 1.62 0.88-1.62 0.88z"/>
</svg>
